X: 10277
T: Dog Leap Stairs
R: three-two
M: 3/2
K: Gmajor
|:g2d4B2e4|cdec A2 ag fgaf|
g2d4B2e4|cdeg a2 gf g4:|
|:B2d4B2c4|A2a4g2 fgaf|
B2d4B2c4|A2a2 fgaf g4:|

